X:1
T:Perranporth, 75.75 D
T:Perranporth, 75.75 D
T:A. W. Wilson
T:Public Domain Courtesy of the Cyber Hymnal™
C:A. W. Wilson
Z:Public Domain
Z:Courtesy of the Cyber Hymnal™
%%score ( 1 2 ) ( 3 4 )
L:1/8
Q:1/4=110
M:4/4
K:A
V:1 treble 
V:2 treble 
V:3 bass 
V:4 bass 
V:1
 [CE]2 (FG) [EA]2 [A,C]2 | E3 z [CE]4 | [CA]2 [Gc]2 [Fc]2 [Fd]2 | [Ae]8 | [CE]2 [CF]2 G3 z x | %5
 [CG]2 [G^A]2 [G^B]4 | c3 z [Ec]2 [^D^B]2 | [Ec]8 | C3 [C^D] [CE]2 [DG]2 | c3 z [^DB]2 A2 | %10
 [EG]2 ([EB][EG]) [EG]2 [^DF]2 | [EG]8 | [EA]2 [CE]2 [FA]2 [FB]2 | c3 z e4 x | %14
 [Ae]2 z G (dc) [GB]2 | A8 |] %16
V:2
 x2 D2 x4 | B,2 (B,2 E) x3 | x8 | x8 | x4 ^D2 (D2 G) | x8 | E2 (F2 ^d) x3 | x8 | x8 | %9
 C2 (E2 c) x (EF) | x8 | x8 | x8 | G2 (A2 c) A2 G2 | x2 (A2 F2) x2 | A8 |] %16
V:3
 [A,,A,]2 [D,A,]2 [C,A,]2 [F,A,]2 | [E,A,]2 [E,G,]2 z2 G,2 | [F,C]2 (CB,) [F,A,]2 (A,B,) | [A,C]8 | %4
 [A,C]2 [A,C]2 [G,^B,]2 [F,B,]2 x | [E,C]2 [C,E]2 [G,^D]4 | [A,C]2 [F,A,]2 G,2 G,2 | [C,G,]8 | %8
 [F,A,]3 [F,A,] [C,G,]2 [B,,G,]2 | [A,,A,]2 [A,,G,]2 [B,,F,]2 B,2 | %10
 [E,B,]2 ([G,,B,][A,,C]) [B,,B,]2 [B,,B,]2 | [E,B,]8 | [A,C]2 z [F,C]2 [D,F]2 x | %13
 [C,^E]2 [F,F]2 [C=E]2 [B,D]2 x | [A,C]2 [C,E]2 [D,A,]2 [E,D]2 | [A,C]8 |] %16
V:4
 x8 | x4 A,4 | x2 ^E,2 x D,2 x | x8 | x9 | x8 | x4 G,2 x2 | x8 | x8 | x6 (C,^D,) | x8 | x8 | %12
 x2 (A,2 G,) x3 | x9 | x8 | x8 |] %16

